X: 1
T: Polska efter Emil Söderqvist
S: efter [[Personer/Emil Söderqvist]], Flen
O: Södermanland
B: SMUS - katalog Sö 9 bild 61
R: Polska
Z: Nils L, 2008-12-16
M: 3/4
L: 1/16
K: Dm
|: D2F2 A2d2 f4 | ed^cd A=Bcd e2g2 | fefa g2f2 e2d2 | efgf ed=c_B AGFE |
   D2F2 A2d2 f4 | ed^cd A=Bcd e2g2 | fefa g2f2 e2d2 | fed^c c4 d4 ::
   a2g2 f2a2 c'2a2 | g2f2 e2g2 b2g2 | gfea g2f2 e2d2 | efgf ed^cd A4 |
   a2g2 f2a2 c'2a2 | g2f2 e2g2 b2g2 | (3a2a2a2 (3g2g2g2 f2f2 | ^c2e2 d4 D4 :|

